!!!!SEGMENT: pl-wtm--r-1461--014_stefani-jozef--wszechstronne-cwiczenia-glosowe-septymy-z-portamento.krn
!!!cenid: 18xx:2191
!!!COM: Stefani, Józef
!!!COM-rismID: pe30024097
!!!CDT: 1800/04/16-1876/03/19
!!!CNT: Polish
!!!GTL: Wszechstronne ćwiczenia głosowe
!!!OTL: Septymy z portamento
!!!PDT:
!!!AGN: Secular
!!!SMS-siglum: PL-Wtm
!!!SMS-shelfmark: R 1461
!!!SMS-shelfwork: 014 G
!!!SMS-variant:
!!!SMS-altvar:
!!!NIFC-rismSourceID: 1001120710
!!!NIFC-rismChildID: 1001120710
!!!NIFC-islandoraID: pl-wtm:25869
!!!URL-pdf-islandora: https://repozytorium.nifc.pl/islandora/object/pl-wtm%3A25869/datastream/PDF/view
!!!URL-scan: https://polish.musicsources.pl/pl/lokalizacje/galeria/rekopisy/6276/10 @EN{Scan on Polish Music Sources Website} @PL{Skany w portalu Dziedzictwo Muzyki Polskiej w otwartym dostępie}
!!!ONB-nifc: UWAGA: skan 0010, s. 16
!!!AIN: 1 empty 1 tenor
!!!key:
**kern	**kern	**kern	**text	**dynam
*part2	*part2	*part1	*part1	*part1
*staff3	*staff2	*staff1	*staff1	*
*Iempty	*Iforte	*Itenor	*	*
*	*I"Fortepian	*I"Soprano/Tenore	*	*
*	*I'pf	*I'S/T	*	*
*clefF4	*clefG2	*clefG2	*	*
*k[]	*k[]	*k[]	*	*
*C:	*C:	*C:	*	*
*M4/4	*M4/4	*M4/4	*	*
*met(c)	*met(c)	*met(c)	*	*
=1	=1	=1	=1	=1
*2\right	*2\right	*2\right	*	*
!!LO:TX:t=P:problem:all\right:global
!	!	!LO:TX:a:Bi:t=Septymy z portamento.	!	!
4C 4CC/	4r	(<2c/	do	<
4r	4c 4G< 4E</	.	.	.
.	.	16qqb/	.	.
4GG 4GGG/	4r	4b/)	si	[
4r	4b 4g 4d/	4r	.	.
=2	=2	=2	=2	=2
!	!	!	!	!LO:HP:b
4F 4FF/	4r	(>2d/	re	<
4r	4b 4g 4d/	.	.	.
.	.	16qqcc/	.	.
4E 4EE/	4r	4cc\)	do	[
4r	4cc 4g 4c/	4r	.	.
=3	=3	=3	=3	=3
!	!	!	!	!LO:HP:b
4c 4C\	4r	(>2e/	mi	<
4r	4cc 4g 4e/	.	.	.
.	.	16qqdd/	.	.
4B 4BB\	4r	4dd\)	re	[
4r	4dd 4b 4g\	4r	.	.
=4	=4	=4	=4	=4
!	!	!	!	!LO:HP:b
4d 4D\	4r	(>2f/	fa	<
4r	4dd 4b 4f\	.	.	.
.	.	16qqee/	.	.
4c 4C\	4r	4ee\)	mi	[
4r	4ee 4cc 4e\	4r	.	.
!!LO:LB:g=original
=5	=5	=5	=5	=5
!	!	!	!	!LO:HP:b
4e 4E\	4r	(>2g/	sol	<
4r	4ee 4cc 4g\	.	.	.
.	.	16qqff/	.	.
4A 4AA\	4r	4ff\)	fa	[
4r	4ff 4cc 4f\	4r	.	.
=6	=6	=6	=6	=6
!	!	!	!	!LO:HP:b
4F 4FF/	4r	(>2a/	la	<
4r	4ff 4cc 4a\	.	.	.
.	.	16qqgg/	.	.
4E 4EE/	4r	4gg\)	sol	[
4r	4gg 4cc 4g\	4r	.	.
=7	=7	=7	=7	=7
!	!	!	!	!LO:HP:b
4G 4GG/	4r	(>2b\	si	<
4r	4gg 4dd 4b 4g\	.	.	.
.	.	16qqaa/	.	.
2F 2FF/	4r	4aa\)	la	[
.	4aa 4dd 4a\	4r	.	.
=8||	=8||	=8||	=8||	=8||
!	!	!	!	!LO:HP:b
4F 4FF/	4r	(>2aa\	la	>
4r	4aa 4dd 4b\	.	.	.
.	.	16qqb/	.	.
4F 4FF/	4r	4b\)	si	]
4r	4aa 4dd 4b\	4r	.	.
=9	=9	=9	=9	=9
!	!	!	!	!LO:HP:b
4E 4EE/	4r	(>2gg\	sol	>
4r	4gg 4cc 4b\	.	.	.
.	.	16qqa/	.	.
4F 4FF/	4r	4a\)	la	]
4r	4ff 4cc 4a\	4r	.	.
!!LO:LB:g=original
=10	=10	=10	=10	=10
!	!	!	!	!LO:HP:b
4D 4DD/	4r	(>2ff\	fa	>
4r	4ff 4b 4a\	.	.	.
.	.	16qqg/	.	.
4E 4EE/	4r	4g/)	sol	]
4r	4ee 4b 4g\	4r	.	.
=11	=11	=11	=11	=11
!	!	!	!	!LO:HP:b
4C 4CC/	4r	(>2ee\	mi	>
4r	4ee 4a 4g\	.	.	.
.	.	16qqf/	.	.
4D 4DD/	4r	4f/)	fa	]
4r	4dd 4a 4f/	4r	.	.
=12	=12	=12	=12	=12
!	!	!	!	!LO:HP:b
4BB 4BBB/	4r	(>2dd\	re	>
4r	4dd 4g 4f/	.	.	.
.	.	16qqe/	.	.
4C 4CC/	4r	4e/)	mi	]
4r	4cc 4g 4e/	4r	.	.
=13	=13	=13	=13	=13
4E 4EE/	4r	2cc\	do	>
4r	4cc 4g 4e/	.	.	.
.	.	16qqd/	.	.
4F 4FF/	4r	4d/	re	]
4r	4cc 4a 4d/	4r	.	.
=14	=14	=14	=14	=14
*	*^	*	*	*
*	*	*^	*	*	*
!	!	!	!	!	!	!LO:HP:b
4G 4GG/	4r	2ryy	2ryy	(>2b\	si	>
4r	4b 4f 4d/	.	.	.	.	.
.	.	.	.	16qqc/	.	.
!	!	!LO:TX:a:t=P:problem=note position	!	!	!	!
2A 2AA\	2cc/	4e/	2c\	4c/)	do	]
.	.	4f#X/	.	4r	.	.
!!LO:LB:g=original
*	*	*v	*v	*	*	*
*	*v	*v	*	*	*
=15	=15	=15	=15	=15
4G 4GG\	4r	(<1d	re	.
4r	4cc 4g 4d/	.	.	.
2G 2GG\	4r	.	.	.
.	4b 4g 4d/	.	.	.
.	.	16qqc/)	.	.
=16	=16	=16	=16	=16
4c 4C\	4cc 4g 4e/	4c/	do.	.
4r	4r	4r	.	.
2r	2r	2r	.	.
==	==	==	==	==
*-	*-	*-	*-	*-
!!!system-decoration: s1{(s2,s3)}
!!!RDF**kern: > = above
!!!RDF**kern: < = below
!!!RDF**kern: | = vertical stroke
!!!RDF**kern: N = linked
!!!RDF**kern: i = editorial accidental
!!!EED: Wojciech Jakubiak-Danek
!!!EEV: 2021-06-03
!!!ENC: Katarzyna Serwa
!!!END: 2021-05-17
!!!YEC: Copyright 2022 Narodowy Instytut Fryderyka Chopina (https://polishscores.org)
!!!YEM: License CC-BY-4.0 (https://creativecommons.org/licenses/by/4.0)
